src/assets/icons/sax/IconSettings.svg

<svg width="20" height="20" viewBox="0 0 24 24" fill="none" xmlns="http://www.w3.org/2000/svg">
<path d="M12 15C13.6569 15 15 13.6569 15 12C15 10.3431 13.6569 9 12 9C10.3431 9 9 10.3431 9 12C9 13.6569 10.3431 15 12 15Z" stroke="currentColor" stroke-width="1.5" stroke-miterlimit="10" stroke-linecap="round" stroke-linejoin="round"/>
<path d="M2 12.8799V11.1199C2 10.0799 2.85 9.21994 3.9 9.21994C5.71 9.21994 6.45 7.93994 5.54 6.36994C5.02 5.46994 5.33 4.29994 6.24 3.77994L7.97 2.78994C8.76 2.31994 9.78 2.59994 10.25 3.38994L10.36 3.57994C11.26 5.14994 12.74 5.14994 13.65 3.57994L13.76 3.38994C14.23 2.59994 15.25 2.31994 16.04 2.78994L17.77 3.77994C18.68 4.29994 18.99 5.46994 18.47 6.36994C17.56 7.93994 18.3 9.21994 20.11 9.21994C21.15 9.21994 22.01 10.0699 22.01 11.1199V12.8799C22.01 13.9199 21.16 14.7799 20.11 14.7799C18.3 14.7799 17.56 16.0599 18.47 17.6299C18.99 18.5399 18.68 19.6999 17.77 20.2199L16.04 21.2099C15.25 21.6799 14.23 21.3999 13.76 20.6099L13.65 20.4199C12.75 18.8499 11.27 18.8499 10.36 20.4199L10.25 20.6099C9.78 21.3999 8.76 21.6799 7.97 21.2099L6.24 20.2199C5.33 19.6999 5.02 18.5299 5.54 17.6299C6.45 16.0599 5.71 14.7799 3.9 14.7799C2.85 14.7799 2 13.9199 2 12.8799Z" stroke="currentColor" stroke-width="1.5" stroke-miterlimit="10" stroke-linecap="round" stroke-linejoin="round"/>
</svg>

<svg xmlns="http://www.w3.org/2000/svg" width="20" height="20" fill="none" viewBox="0 0 24 24">
  <path stroke="currentcolor" stroke-linecap="round" stroke-linejoin="round" stroke-miterlimit="10" stroke-width="1.5" d="M12 15a3 3 0 1 0 0-6 3 3 0 0 0 0 6"/>
  <path stroke="currentcolor" stroke-linecap="round" stroke-linejoin="round" stroke-miterlimit="10" stroke-width="1.5" d="M2 12.88v-1.76c0-1.04.85-1.9 1.9-1.9 1.81 0 2.55-1.28 1.64-2.85a1.9 1.9 0 0 1 .7-2.59l1.73-.99a1.67 1.67 0 0 1 2.28.6l.11.19c.9 1.57 2.38 1.57 3.29 0l.11-.19a1.67 1.67 0 0 1 2.28-.6l1.73.99a1.9 1.9 0 0 1 .7 2.59c-.91 1.57-.17 2.85 1.64 2.85 1.04 0 1.9.85 1.9 1.9v1.76a1.9 1.9 0 0 1-1.9 1.9c-1.81 0-2.55 1.28-1.64 2.85a1.9 1.9 0 0 1-.7 2.59l-1.73.99c-.79.47-1.81.19-2.28-.6l-.11-.19c-.9-1.57-2.38-1.57-3.29 0l-.11.19a1.67 1.67 0 0 1-2.28.6l-1.73-.99a1.9 1.9 0 0 1-.7-2.59c.91-1.57.17-2.85-1.64-2.85a1.9 1.9 0 0 1-1.9-1.9"/>
</svg>
